X: 104
T: The Maids of Araglen
N:"Moderate" "collected by J.O'Neill"
B:O'Neill's 104
Z:Transcribed by henrik.norbeck@mailbox.swipnet.se
M:C
L:1/8
K:G
D|G2 (G/A/B/A/) G2 AB|cBAG E2 (DE)|G2 (G/A/B) G2 Bd|egfe d2 z d|
edef gfed|cBAG A2BA|GEDB, DEGA|B2 G2 G2 z||
d|edef g2 fe|dBAG A2 Bd|edef g2 fe|fagf e3 d|
edef gage|dBAG A2 (BA)|GEDB, DEGA|B2 G2 G2 z||


